static/img/kroki/acec70f14e1f40f91ec47de18da3d4ac.svg

<?xml version="1.0" encoding="us-ascii" standalone="no"?><svg xmlns="http://www.w3.org/2000/svg" xmlns:xlink="http://www.w3.org/1999/xlink" contentStyleType="text/css" height="152px" preserveAspectRatio="none" style="width:268px;height:152px;" version="1.1" viewBox="0 0 268 152" width="268px" zoomAndPan="magnify"><defs/><g><!--class kubernetes_cluster--><g id="elem_kubernetes_cluster"><rect codeLine="22" fill="#3D176E" height="39.7891" id="kubernetes_cluster" rx="2.5" ry="2.5" style="stroke:#000D19;stroke-width:0.5;" width="201" x="33.5" y="7"/><ellipse cx="48.5" cy="26.8945" fill="#ADD1B2" rx="11" ry="11" style="stroke:#181818;stroke-width:1.0;"/><path d="M51.4688,32.5352 Q50.8906,32.832 50.25,32.9727 Q49.6094,33.1289 48.9063,33.1289 Q46.4063,33.1289 45.0781,31.4883 Q43.7656,29.832 43.7656,26.707 Q43.7656,23.582 45.0781,21.9258 Q46.4063,20.2695 48.9063,20.2695 Q49.6094,20.2695 50.25,20.4258 Q50.9063,20.582 51.4688,20.8789 L51.4688,23.5977 Q50.8438,23.0195 50.25,22.7539 Q49.6563,22.4727 49.0313,22.4727 Q47.6875,22.4727 47,23.5508 Q46.3125,24.6133 46.3125,26.707 Q46.3125,28.8008 47,29.8789 Q47.6875,30.9414 49.0313,30.9414 Q49.6563,30.9414 50.25,30.6758 Q50.8438,30.3945 51.4688,29.8164 L51.4688,32.5352 Z " fill="#000000"/><text fill="#D9B8FF" font-family="Helvetica" font-size="17" lengthAdjust="spacing" textLength="159" x="67.5" y="32.7798">kubernetes_cluster</text></g><!--class kubernetes_flow_schema--><g id="elem_kubernetes_flow_schema"><rect codeLine="24" fill="#3D176E" height="39.7891" id="kubernetes_flow_schema" rx="2.5" ry="2.5" style="stroke:#000D19;stroke-width:0.5;" width="254" x="7" y="106.79"/><ellipse cx="22" cy="126.6845" fill="#ADD1B2" rx="11" ry="11" style="stroke:#181818;stroke-width:1.0;"/><path d="M24.9688,132.3252 Q24.3906,132.622 23.75,132.7627 Q23.1094,132.9189 22.4063,132.9189 Q19.9063,132.9189 18.5781,131.2783 Q17.2656,129.622 17.2656,126.497 Q17.2656,123.372 18.5781,121.7158 Q19.9063,120.0595 22.4063,120.0595 Q23.1094,120.0595 23.75,120.2158 Q24.4063,120.372 24.9688,120.6689 L24.9688,123.3877 Q24.3438,122.8095 23.75,122.5439 Q23.1563,122.2627 22.5313,122.2627 Q21.1875,122.2627 20.5,123.3408 Q19.8125,124.4033 19.8125,126.497 Q19.8125,128.5908 20.5,129.6689 Q21.1875,130.7314 22.5313,130.7314 Q23.1563,130.7314 23.75,130.4658 Q24.3438,130.1845 24.9688,129.6064 L24.9688,132.3252 Z " fill="#000000"/><text fill="#D9B8FF" font-family="Helvetica" font-size="17" lengthAdjust="spacing" textLength="212" x="41" y="132.5698">kubernetes_flow_schema</text></g><!--link kubernetes_cluster to kubernetes_flow_schema--><g id="link_kubernetes_cluster_kubernetes_flow_schema"><path codeLine="26" d="M134,47.22 C134,62.49 134,83.92 134,100.53 " fill="none" id="kubernetes_cluster-to-kubernetes_flow_schema" style="stroke:#1A83AF;stroke-width:2.0;"/><polygon fill="#1A83AF" points="134,105.41,138,96.41,134,100.41,130,96.41,134,105.41" style="stroke:#1A83AF;stroke-width:2.0;"/></g><!--SRC=[XP9FIyD04CNl_HGBEHSIWoQv26cWwAM8zIPIjjdPPid-2RCRGnM_kqshiYPDUvttcvdtXga40mAgSNkYG6q1xSpMGZSKgI8vekaA8msIW7FAusGeBersLu4LLK0UGBw34oKT4Y-LA6iDrf8RJrhGijwXQJKxZNT8jJr8e9r75P9Qcpk7OjiwyComR9joFYI7GuEOHSaTZ3233F072SEGHTaGkRhgOku_OYq-W4J-qLR6mSZcQCMHkkYo9poJew2_-gJ79ygOq3jowzMUJvvG0_whholAJDVJd4hhhx4E48pRDr2CKa6MCfwSXH-duBA_7AdRmwDgS60tfMpxDl8v-ngBN9fkOyiA53q2P_hchq6Kft6-V9lVJxH-0m00]--></g></svg>

<svg xmlns="http://www.w3.org/2000/svg" width="268" height="152" preserveAspectRatio="none" style="width:268px;height:152px"><rect width="201" height="39.789" x="33.5" y="7" fill="#3D176E" rx="2.5" ry="2.5" style="stroke:#000d19;stroke-width:.5"/><circle cx="48.5" cy="26.895" r="11" fill="#ADD1B2" style="stroke:#181818;stroke-width:1"/><path d="M51.469 32.535q-.578.297-1.219.438-.64.156-1.344.156-2.5 0-3.828-1.64-1.312-1.657-1.312-4.782t1.312-4.781q1.328-1.656 3.828-1.656.703 0 1.344.156.656.156 1.219.453v2.719q-.625-.578-1.219-.844-.594-.281-1.219-.281-1.343 0-2.031 1.078-.688 1.062-.688 3.156 0 2.094.688 3.172.688 1.062 2.031 1.062.625 0 1.219-.265.594-.281 1.219-.86v2.72Z"/><text x="67.5" y="32.78" fill="#D9B8FF" font-family="Helvetica" font-size="17" textLength="159">kubernetes_cluster</text><rect width="254" height="39.789" x="7" y="106.79" fill="#3D176E" rx="2.5" ry="2.5" style="stroke:#000d19;stroke-width:.5"/><circle cx="22" cy="126.684" r="11" fill="#ADD1B2" style="stroke:#181818;stroke-width:1"/><path d="M24.969 132.325q-.578.297-1.219.438-.64.156-1.344.156-2.5 0-3.828-1.64-1.312-1.657-1.312-4.782t1.312-4.781q1.328-1.656 3.828-1.656.703 0 1.344.156.656.156 1.219.453v2.719q-.625-.579-1.219-.844-.594-.281-1.219-.281-1.343 0-2.031 1.078-.688 1.062-.688 3.156 0 2.094.688 3.172.688 1.062 2.031 1.062.625 0 1.219-.265.594-.281 1.219-.86v2.72Z"/><text x="41" y="132.57" fill="#D9B8FF" font-family="Helvetica" font-size="17" textLength="212">kubernetes_flow_schema</text><path fill="none" d="M134 47.22v53.31" style="stroke:#1a83af;stroke-width:2"/><path fill="#1A83AF" d="m134 105.41 4-9-4 4-4-4 4 9z" style="stroke:#1a83af;stroke-width:2"/></svg>
